X:1
T:Bird's Gypsy
C:Megan Wobus
S:Megan Wobus composed 6/1/2002
M:6/8
R:jig
K:Ebm
|: eBA GFE | F=AB GFE | B,EB, CEC | B,EB, =A,2 B |
eBA GFE | F=AB GFE | B,EB, CEC | B,=DF E3 :|
|: EFG =AGF | EFG BGF | EFG cGc | BGB =A2A |
 EFG =AGF | EFG B2B | eBA GFE | FE=D E3 :|
W:Copyright 2002 Megan Wobus, PGTPPCATPL AORR
